symbols/web/looks/materialsymbolsoutlined/looks_wght200_24px.svg

<svg xmlns="http://www.w3.org/2000/svg" height="24" width="24"><path d="M2 17q0-2.075.788-3.9.787-1.825 2.137-3.175 1.35-1.35 3.175-2.138Q9.925 7 12 7t3.9.787q1.825.788 3.175 2.138 1.35 1.35 2.137 3.175Q22 14.925 22 17h-1q0-3.725-2.637-6.363Q15.725 8 12 8q-3.725 0-6.362 2.637Q3 13.275 3 17Zm4 0q0-2.5 1.75-4.25T12 11q2.5 0 4.25 1.75T18 17h-1q0-2.075-1.462-3.538Q14.075 12 12 12q-2.075 0-3.537 1.462Q7 14.925 7 17Z"/></svg>

<svg xmlns="http://www.w3.org/2000/svg" height="24" width="24"><path d="M6 17Q6 14.5 7.75 12.75Q9.5 11 12 11Q14.5 11 16.25 12.75Q18 14.5 18 17H17Q17 14.925 15.538 13.462Q14.075 12 12 12Q9.925 12 8.463 13.462Q7 14.925 7 17ZM2 17Q2 14.925 2.788 13.1Q3.575 11.275 4.925 9.925Q6.275 8.575 8.1 7.787Q9.925 7 12 7Q14.075 7 15.9 7.787Q17.725 8.575 19.075 9.925Q20.425 11.275 21.212 13.1Q22 14.925 22 17H21Q21 13.275 18.363 10.637Q15.725 8 12 8Q8.275 8 5.638 10.637Q3 13.275 3 17Z"/></svg>
